X: 2230
T: Avenging And Bright
R: waltz
M: 3/4
K: Bminor
F2|B2 (Bc)(dB)|c2 f2 e2|d2 B2 B2|A2 F2 F2|
B2 (Bc)(dB)|c2 f2 e2|d2 B2 {d}c2|(c2 B2) z||
c2|d2 (de)(fd)|c2 A2 F2|G2 (GB)(AG)|F2 D2 A2|
d2 (de)(fd)|c2 A2 F2|(GF)(Ed){d}(cB)|B4 z||

